X: 9103
T: Da Slockit Light
R: reel
M: 4/4
K: Dmajor
|:FE|D3F A2d2|fedc d3A|B2d2 A2d2|BAGF EGFE|
D3F A2d2|fedc d3A|B2G2 AGFE|D6:|
E2|e2a2 e3c|d3e dcBA|e2a2 e2^g2|a6 g2|
e2a2 e3c|d3e dcBA|B2G2 AGFE|D6 g2|
f2a2 e3c|d3e dcBA|B2d2 A2d2|BAGF FGFE|
D3F A2d2|fedc d3A|B2G2 AGFE|D6||

